X:155
T:Gealbhan, An
T:Sparrow, The
R:polka
Z:id:hn-polka-155
M:2/4
L:1/8
K:G
DG G>A | Bd dB/d/ | eg/e/ dB | AG EG/E/ |
DG G>A | Bd dB/d/ | eg/e/ dB |1 AG G>E :|2 AG G>A ||
|: Bd Bd | g>f eg/e/ | dB BA/G/ | EA AG/A/ |
Bd Bd | g>f eg/e/ | dB AB/A/ | G2 G2 :|

